X:249
T: AUS DEM KARLSRUH MUSS ICH REISEN, AUS DER ALLERSCHOENSTEN STADT
N: Z0248
O: Europa, Mitteleuropa, Deutschland, Baden
R: Handwerker - Lied, Wanderschaft
M: 3/4
L: 1/8
K: G
GB | d3gdc | cBB2
AB | dcc2BG | A2z2
AB | c3BBA | AGG2
(3def | gdB2AA | G4
AB | c3BBA | AGG2
(3def | gdB2AA | G4

@@@ Tune index: 10007
